; generated by PrusaSlicer 2.9.0 on 2025-01-16 at 08:03:21 UTC


;
;
; 

; external perimeters extrusion width = 0.65mm
; perimeters extrusion width = 0.65mm
; infill extrusion width = 0.65mm
; solid infill extrusion width = 0.65mm
; top infill extrusion width = 0.60mm
; first layer extrusion width = 0.65mm

; external perimeters extrusion width = 0.65mm
; perimeters extrusion width = 0.65mm
; infill extrusion width = 0.65mm
; solid infill extrusion width = 0.65mm
; top infill extrusion width = 0.60mm
; first layer extrusion width = 0.65mm

M73 P0 R117
M73 Q0 S119
M201 X1000 Y1000 Z200 E5000 ; sets maximum accelerations, mm/sec^2
M203 X200 Y200 Z12 E120 ; sets maximum feedrates, mm / sec
M204 S1250 T1250 ; sets acceleration (S) and retract acceleration (R), mm/sec^2
M205 X8.00 Y8.00 Z0.40 E4.50 ; sets the jerk limits, mm/sec
M205 S0 T0 ; sets the minimum extruding and travel feed rate, mm/sec

; printing object HW90118--STD--Chain Link Start 20x15 id:0 copy 0
; stop printing object HW90118--STD--Chain Link Start 20x15 id:0 copy 0
; printing object HW90118--STD--Chain Link Start 20x15 id:0 copy 1
; stop printing object HW90118--STD--Chain Link Start 20x15 id:0 copy 1
; printing object HW90119--STD--Chain Link End 20x15 id:1 copy 0
; stop printing object HW90119--STD--Chain Link End 20x15 id:1 copy 0
; printing object HW90119--STD--Chain Link End 20x15 id:1 copy 1
; stop printing object HW90119--STD--Chain Link End 20x15 id:1 copy 1

;TYPE:Custom
M862.3 P "MK3S" ; printer model check
M862.1 P0.6 ; nozzle diameter check
M115 U3.14.1 ; tell printer latest fw version
G90 ; use absolute coordinates
M83 ; extruder relative mode
M104 S230 ; set extruder temp
M140 S85 ; set bed temp
M190 S85 ; wait for bed temp
M109 S230 ; wait for extruder temp
G28 W ; home all without mesh bed level
G80 X89.1772 Y70.6 W71.6455 H58.1819 ; mesh bed levelling

G1 Z0.2 F720
G1 Y-3 F1000 ; go outside print area
G92 E0
G1 X60 E9 F1000 ; intro line
G1 X100 E12.5 F1000 ; intro line

G92 E0
M221 S95
G21 ; set units to millimeters
G90 ; use absolute coordinates
M83 ; use relative distances for extrusion

M900 K0.04 ; Filament gcode LA 1.5
M900 K24 ; Filament gcode LA 1.0




M107
;LAYER_CHANGE
;Z:0.2
;HEIGHT:0.2
G1 E-1 F2100
G1 Z.4 F720
G1 X90.744 Y85.66 F10800
G1 Z.2 F720
G1 E1 F1500
M204 S800
;TYPE:Skirt/Brim
;WIDTH:0.65
G1 F1200
G1 X91.549 Y84.927 E.05496
G1 X92.442 Y84.419 E.05186
G1 X93.979 Y84.053 E.07976
G1 X121.974 Y84.054 E1.41316
G1 X123.013 Y84.229 E.05319
G1 X123.625 Y84.434 E.03258
G1 X123.652 Y75.114 E.47047
G1 X123.984 Y73.869 E.06504
G1 X124.649 Y72.77 E.06484
G1 X125.548 Y71.928 E.06218
G1 X126.36 Y71.452 E.04751
G1 X127.979 Y71.053 E.08417
G1 X155.974 Y71.054 E1.41316
G1 X156.959 Y71.215 E.05038
G1 X157.648 Y71.451 E.03676
G1 X158.486 Y71.946 E.04913
G1 X159.035 Y72.41 E.03629
G1 X159.963 Y73.755 E.08249
G1 X160.224 Y74.484 E.03909
G1 X160.368 Y75.308 E.04222
G1 X160.372 Y84.428 E.46037
G1 X160.281 Y85.359 E.04722
G1 X159.979 Y86.416 E.05549
G1 X159.475 Y87.352 E.05366
G1 X158.617 Y88.281 E.06384
G1 X157.527 Y88.957 E.06474
G1 X156.069 Y89.328 E.07594
G1 X151.829 Y89.335 E.21403
G1 X150.898 Y89.168 E.04775
G1 X150.074 Y88.842 E.04473
G1 X149.333 Y88.367 E.04443
G1 X148.643 Y87.702 E.04837
G1 X148.17 Y87.048 E.04074
G1 X147.772 Y86.166 E.04885
G1 X147.575 Y85.331 E.04331
G1 X147.555 Y83.953 E.06957
G1 X136.447 Y83.953 E.56072
G1 X136.428 Y85.307 E.06836
G1 X136.247 Y86.115 E.0418
G1 X135.939 Y86.849 E.04018
G1 X135.5 Y87.531 E.04094
G1 X134.868 Y88.196 E.04631
G1 X134.104 Y88.747 E.04755
G1 X133.206 Y89.137 E.04942
G1 X132.298 Y89.323 E.04679
G1 X127.937 Y89.324 E.22014
G1 X127.391 Y89.244 E.02786
G1 X126.373 Y88.915 E.054
G1 X126.372 Y97.433 E.42998
G1 X127.979 Y97.053 E.08336
G1 X155.974 Y97.054 E1.41316
G1 X156.958 Y97.214 E.05032
G1 X157.76 Y97.504 E.04305
G1 X158.487 Y97.946 E.04295
G1 X159.036 Y98.411 E.03632
G1 X159.891 Y99.614 E.0745
G1 X160.222 Y100.482 E.04689
G1 X160.376 Y101.407 E.04734
G1 X160.372 Y110.429 E.45542
G1 X160.281 Y111.359 E.04717
G1 X159.979 Y112.416 E.05549
G1 X159.475 Y113.352 E.05366
G1 X158.617 Y114.281 E.06384
G1 X157.527 Y114.957 E.06474
G1 X156.069 Y115.328 E.07594
G1 X151.829 Y115.335 E.21403
G1 X150.898 Y115.168 E.04775
G1 X150.074 Y114.842 E.04473
G1 X149.333 Y114.367 E.04443
G1 X148.643 Y113.702 E.04837
G1 X148.17 Y113.048 E.04074
G1 X147.772 Y112.166 E.04885
G1 X147.575 Y111.331 E.04331
G1 X147.555 Y109.953 E.06957
G1 X136.447 Y109.953 E.56072
G1 X136.428 Y111.307 E.06836
G1 X136.247 Y112.115 E.0418
G1 X135.939 Y112.849 E.04018
G1 X135.5 Y113.531 E.04094
G1 X134.868 Y114.196 E.04631
G1 X134.104 Y114.747 E.04755
G1 X133.206 Y115.137 E.04942
G1 X132.298 Y115.323 E.04679
G1 X127.937 Y115.324 E.22014
G1 X127.391 Y115.244 E.02786
G1 X126.373 Y114.915 E.054
G1 X126.372 Y123.428 E.42973
G1 X126.259 Y124.47 E.05291
G1 X125.927 Y125.539 E.0565
G1 X125.384 Y126.476 E.05467
G1 X124.493 Y127.382 E.06414
G1 X123.215 Y128.076 E.07341
G1 X122.006 Y128.335 E.06241
G1 X117.829 Y128.335 E.21085
G1 X116.898 Y128.168 E.04775
G1 X116.024 Y127.815 E.04758
G1 X115.288 Y127.331 E.04447
G1 X114.644 Y126.703 E.04541
G1 X114.14 Y125.996 E.04383
G1 X113.772 Y125.167 E.04578
G1 X113.575 Y124.331 E.04336
G1 X113.555 Y122.953 E.06957
G1 X102.446 Y122.953 E.56077
G1 X102.441 Y124.185 E.06219
G1 X102.28 Y125.006 E.04223
G1 X101.939 Y125.847 E.04581
G1 X101.503 Y126.527 E.04078
G1 X100.829 Y127.23 E.04916
G1 X100.107 Y127.746 E.0448
G1 X99.269 Y128.116 E.04624
G1 X98.43 Y128.308 E.04345
G1 X93.939 Y128.324 E.2267
G1 X93.395 Y128.245 E.02775
G1 X92.408 Y127.924 E.05239
G1 X91.484 Y127.365 E.05451
G1 X90.625 Y126.485 E.06208
G1 X90.121 Y125.65 E.04923
G1 X89.779 Y124.643 E.05368
G1 X89.629 Y123.444 E.061
G1 X89.633 Y114.264 E.4634
G1 X89.984 Y112.869 E.07261
G1 X90.649 Y111.77 E.06484
G1 X91.549 Y110.927 E.06225
G1 X92.282 Y110.484 E.04323
G1 X93.98 Y110.053 E.08843
G1 X121.974 Y110.054 E1.41311
G1 X123.013 Y110.229 E.05319
G1 X123.625 Y110.434 E.03258
G1 X123.633 Y101.981 E.4267
G1 X122.006 Y102.335 E.08405
G1 X117.829 Y102.335 E.21085
G1 X116.898 Y102.168 E.04775
G1 X116.075 Y101.842 E.04468
G1 X115.288 Y101.331 E.04737
G1 X114.644 Y100.703 E.04541
G1 X114.14 Y99.996 E.04383
G1 X113.772 Y99.167 E.04578
G1 X113.575 Y98.331 E.04336
G1 X113.555 Y96.953 E.06957
G1 X102.445 Y96.953 E.56082
G1 X102.434 Y98.248 E.06537
G1 X102.262 Y99.065 E.04215
G1 X101.912 Y99.899 E.04566
G1 X101.465 Y100.575 E.04091
G1 X100.827 Y101.232 E.04623
G1 X100.106 Y101.746 E.0447
G1 X99.267 Y102.117 E.04631
G1 X98.362 Y102.316 E.04677
G1 X93.845 Y102.317 E.22801
G1 X93.345 Y102.233 E.02559
G1 X92.407 Y101.924 E.04985
G1 X91.485 Y101.365 E.05443
G1 X90.541 Y100.375 E.06905
G1 X90.096 Y99.593 E.04542
G1 X89.752 Y98.522 E.05678
G1 X89.625 Y97.374 E.0583
G1 X89.633 Y88.263 E.45991
G1 X89.938 Y86.993 E.06593
G1 X90.197 Y86.453 E.03023
G1 X90.693 Y85.734 E.04409
M204 S1000
G1 X90.693 Y85.734 F10800
G1 X91.18 Y86.084
M204 S800
G1 F1200
G1 X91.934 Y85.397 E.05149
G1 X92.629 Y84.998 E.04045
G1 X94.016 Y84.66 E.07206
G1 X121.947 Y84.662 E1.40993
G1 X122.881 Y84.822 E.04783
G1 X123.417 Y85.013 E.02872
G1 X124.367 Y85.576 E.05574
G1 X124.232 Y84.358 E.06186
G1 X124.25 Y75.229 E.46082
G1 X124.54 Y74.115 E.05811
M73 Q0 S118
G1 X125.134 Y73.138 E.05772
G1 X125.936 Y72.395 E.05519
G1 X126.553 Y72.029 E.03621
G1 X128.018 Y71.66 E.07626
G1 X155.948 Y71.661 E1.40987
G1 X156.832 Y71.809 E.04524
G1 X157.417 Y72.013 E.03127
G1 X158.151 Y72.453 E.0432
G1 X158.61 Y72.845 E.03047
G1 X159.405 Y73.996 E.07061
G1 X159.643 Y74.662 E.0357
G1 X159.765 Y75.383 E.03691
G1 X159.765 Y84.413 E.45582
G1 X159.68 Y85.27 E.04347
G1 X159.406 Y86.213 E.04957
G1 X158.962 Y87.025 E.04672
G1 X158.203 Y87.836 E.05607
G1 X157.286 Y88.399 E.05432
G1 X155.974 Y88.728 E.06828
G1 X151.858 Y88.728 E.20777
G1 X151.04 Y88.577 E.04199
G1 X150.33 Y88.29 E.03866
G1 X149.69 Y87.875 E.0385
G1 X149.087 Y87.287 E.04251
G1 X148.682 Y86.721 E.03513
G1 X148.339 Y85.948 E.04269
G1 X148.175 Y85.23 E.03718
G1 X148.159 Y83.346 E.09511
G1 X135.843 Y83.346 E.6217
G1 X135.828 Y85.21 E.0941
G1 X135.676 Y85.907 E.03601
G1 X135.39 Y86.588 E.03728
G1 X135.008 Y87.174 E.03531
G1 X134.45 Y87.756 E.0407
G1 X133.829 Y88.205 E.03868
G1 X133.048 Y88.55 E.0431
G1 X132.265 Y88.715 E.04039
G1 X127.961 Y88.717 E.21726
G1 X127.51 Y88.648 E.02303
G1 X126.631 Y88.358 E.04672
G1 X125.766 Y87.836 E.051
G1 X125.765 Y97.413 E.48344
G1 X125.654 Y98.538 E.05706
G1 X126.627 Y97.999 E.05615
G1 X128.016 Y97.66 E.07217
G1 X155.948 Y97.661 E1.40998
G1 X156.831 Y97.809 E.04519
G1 X157.471 Y98.039 E.03433
G1 X158.15 Y98.452 E.04012
G1 X158.611 Y98.846 E.03061
G1 X159.37 Y99.928 E.06672
G1 X159.643 Y100.664 E.03963
G1 X159.769 Y101.431 E.03924
G1 X159.765 Y110.413 E.4534
G1 X159.68 Y111.27 E.04347
G1 X159.406 Y112.213 E.04957
G1 X158.962 Y113.025 E.04672
G1 X158.203 Y113.836 E.05607
G1 X156.974 Y114.515 E.07088
G1 X155.974 Y114.728 E.05161
G1 X151.858 Y114.728 E.20777
G1 X151.04 Y114.577 E.04199
G1 X150.33 Y114.29 E.03866
G1 X149.69 Y113.875 E.0385
G1 X149.087 Y113.287 E.04251
G1 X148.682 Y112.721 E.03513
G1 X148.339 Y111.948 E.04269
G1 X148.175 Y111.23 E.03718
G1 X148.159 Y109.346 E.09511
G1 X135.843 Y109.346 E.6217
G1 X135.828 Y111.21 E.0941
G1 X135.676 Y111.907 E.03601
G1 X135.39 Y112.588 E.03728
G1 X135.008 Y113.174 E.03531
G1 X134.45 Y113.756 E.0407
G1 X133.829 Y114.205 E.03868
G1 X133.048 Y114.55 E.0431
G1 X132.265 Y114.715 E.04039
G1 X127.961 Y114.717 E.21726
G1 X127.51 Y114.648 E.02303
G1 X126.631 Y114.358 E.04672
G1 X125.766 Y113.836 E.051
G1 X125.765 Y123.412 E.48339
G1 X125.669 Y124.323 E.04624
G1 X125.381 Y125.27 E.04997
G1 X124.919 Y126.083 E.0472
G1 X124.143 Y126.884 E.0563
G1 X123.333 Y127.376 E.04784
G1 X121.974 Y127.728 E.07086
G1 X117.858 Y127.728 E.20777
G1 X117.041 Y127.577 E.04194
G1 X116.282 Y127.265 E.04142
G1 X115.691 Y126.876 E.03572
G1 X115.087 Y126.287 E.04259
G1 X114.682 Y125.721 E.03513
G1 X114.339 Y124.949 E.04264
G1 X114.175 Y124.23 E.03723
G1 X114.159 Y122.346 E.09511
G1 X101.842 Y122.346 E.62175
G1 X101.834 Y124.152 E.09117
G1 X101.692 Y124.855 E.0362
G1 X101.389 Y125.59 E.04013
G1 X101.043 Y126.131 E.03242
G1 X100.449 Y126.756 E.04352
G1 X99.828 Y127.206 E.03871
G1 X99.103 Y127.531 E.04011
G1 X98.328 Y127.708 E.04013
G1 X93.959 Y127.717 E.22054
G1 X92.631 Y127.358 E.06944
G1 X91.837 Y126.869 E.04707
G1 X91.088 Y126.092 E.05448
G1 X90.661 Y125.371 E.0423
G1 X90.365 Y124.482 E.0473
G1 X90.234 Y123.391 E.05547
G1 X90.24 Y114.302 E.4588
G1 X90.541 Y113.114 E.06186
G1 X90.731 Y112.741 E.02113
G1 X91.134 Y112.138 E.03661
G1 X91.936 Y111.395 E.05519
G1 X92.553 Y111.029 E.03621
G1 X94.018 Y110.66 E.07626
G1 X121.947 Y110.662 E1.40982
G1 X122.881 Y110.822 E.04783
G1 X123.417 Y111.013 E.02872
G1 X124.367 Y111.576 E.05574
G1 X124.232 Y110.357 E.06191
G1 X124.241 Y100.825 E.48116
G1 X123.333 Y101.376 E.05361
G1 X121.974 Y101.728 E.07086
G1 X117.858 Y101.728 E.20777
G1 X117.04 Y101.577 E.04199
G1 X116.33 Y101.29 E.03866
G1 X115.69 Y100.875 E.0385
G1 X115.087 Y100.287 E.04251
G1 X114.682 Y99.721 E.03513
G1 X114.339 Y98.949 E.04264
G1 X114.175 Y98.23 E.03723
G1 X114.159 Y96.346 E.09511
G1 X101.843 Y96.346 E.6217
G1 X101.828 Y98.21 E.0941
G1 X101.676 Y98.906 E.03596
G1 X101.365 Y99.634 E.03996
G1 X101.009 Y100.173 E.03261
G1 X100.41 Y100.79 E.04341
G1 X99.829 Y101.205 E.03604
G1 X99.105 Y101.531 E.04008
G1 X98.264 Y101.716 E.04347
G1 X93.917 Y101.713 E.21943
G1 X92.632 Y101.359 E.06728
G1 X91.838 Y100.87 E.04707
G1 X91.048 Y100.039 E.05788
G1 X90.662 Y99.373 E.03886
G1 X90.352 Y98.422 E.05049
G1 X90.232 Y97.357 E.0541
G1 X90.24 Y88.301 E.45714
G1 X90.518 Y87.173 E.05864
G1 X90.731 Y86.741 E.02431
G1 X91.129 Y86.159 E.03559
M204 S1000
;WIPE_START
G1 F8640
G1 X91.18 Y86.084 E-.02094
G1 X91.934 Y85.397 E-.23553
G1 X92.629 Y84.998 E-.18504
G1 X94.016 Y84.66 E-.32963
G1 X95.007 Y84.66 E-.22886
;WIPE_END
G1 Z.4 F720
G1 X94.055 Y111.267 F10800
G1 Z.2 F720
G1 E1 F1500
M204 S800
G1 F1200
G1 X121.922 Y111.269 E1.40669
G1 X122.702 Y111.402 E.03994
G1 X123.182 Y111.574 E.02574
G1 X124.183 Y112.279 E.0618
G1 X124.847 Y113.238 E.05888
G1 X125.061 Y113.84 E.03225
G1 X125.162 Y114.456 E.03151
G1 X125.158 Y123.397 E.45133
G1 X125.079 Y124.18 E.03973
G1 X124.834 Y125.007 E.04354
G1 X124.451 Y125.695 E.03975
G1 X123.793 Y126.387 E.0482
G1 X123.043 Y126.842 E.04428
G1 X121.94 Y127.121 E.05743
G1 X117.887 Y127.121 E.20459
G1 X117.186 Y126.987 E.03603
G1 X116.588 Y126.74 E.03266
G1 X116.093 Y126.419 E.02978
G1 X115.53 Y125.871 E.03966
G1 X115.224 Y125.446 E.02644
G1 X114.907 Y124.731 E.03948
G1 X114.774 Y124.132 E.03097
G1 X114.765 Y121.739 E.1208
G1 X101.237 Y121.739 E.68288
G1 X101.227 Y124.117 E.12004
G1 X101.104 Y124.7 E.03008
G1 X100.841 Y125.328 E.03437
G1 X100.55 Y125.774 E.02688
G1 X100.03 Y126.316 E.03792
G1 X99.55 Y126.665 E.02996
G1 X98.884 Y126.964 E.03685
G1 X98.231 Y127.108 E.03375
G1 X93.675 Y127.063 E.22999
G1 X92.858 Y126.794 E.04342
G1 X92.194 Y126.377 E.03958
G1 X91.553 Y125.7 E.04706
G1 X91.227 Y125.148 E.03236
G1 X90.951 Y124.321 E.04401
G1 X90.839 Y123.34 E.04984
G1 X90.847 Y114.341 E.45426
G1 X91.098 Y113.357 E.05126
G1 X91.617 Y112.507 E.05027
G1 X92.319 Y111.867 E.04795
G1 X92.82 Y111.576 E.02925
G1 X93.967 Y111.289 E.05968
M204 S1000
G1 X93.967 Y111.289 F10800
G1 X94.091 Y111.874
M204 S800
G1 F1200
G1 X121.894 Y111.876 E1.40346
G1 X122.942 Y112.132 E.05446
G1 X123.754 Y112.709 E.05028
G1 X124.29 Y113.484 E.04757
G1 X124.554 Y114.482 E.05211
G1 X124.551 Y123.381 E.44921
G1 X124.478 Y124.087 E.03583
M73 P0 R116
G1 X124.262 Y124.8 E.03761
G1 X123.981 Y125.31 E.02939
G1 X123.438 Y125.892 E.04018
G1 X122.659 Y126.342 E.04541
G1 X121.905 Y126.514 E.03904
G1 X117.918 Y126.514 E.20126
G1 X117.335 Y126.398 E.03001
G1 X116.89 Y126.213 E.02433
G1 X116.49 Y125.96 E.02389
G1 X115.765 Y125.167 E.05424
G1 X115.474 Y124.512 E.03618
G1 X115.381 Y124.097 E.02147
G1 X115.37 Y121.132 E.14967
G1 X100.63 Y121.132 E.74406
G1 X100.626 Y124.028 E.14619
G1 X100.531 Y124.497 E.02416
G1 X100.091 Y125.377 E.04966
G1 X99.613 Y125.874 E.03481
G1 X99.225 Y126.152 E.02409
G1 X98.671 Y126.395 E.03054
G1 X98.138 Y126.508 E.0275
G1 X94.007 Y126.503 E.20853
G1 X93.147 Y126.259 E.04513
G1 X92.552 Y125.885 E.03548
G1 X92.023 Y125.315 E.03925
G1 X91.77 Y124.875 E.02562
G1 X91.539 Y124.164 E.03774
G1 X91.447 Y123.324 E.04266
G1 X91.446 Y114.45 E.44795
G1 X91.657 Y113.595 E.04445
G1 X92.1 Y112.877 E.04259
G1 X92.697 Y112.343 E.04043
G1 X93.082 Y112.125 E.02233
G1 X94.004 Y111.896 E.04796
M204 S1000
G1 X94.004 Y111.896 F10800
G1 X94.128 Y112.481
M204 S800
G1 F1200
G1 X121.865 Y112.483 E1.40013
G1 X122.696 Y112.688 E.04321
G1 X123.322 Y113.136 E.03886
G1 X123.733 Y113.729 E.03642
G1 X123.947 Y114.507 E.04073
G1 X123.944 Y123.365 E.44714
G1 X123.877 Y123.993 E.03188
G1 X123.506 Y124.931 E.05092
G1 X123.08 Y125.4 E.03198
G1 X122.489 Y125.759 E.03491
G1 X121.868 Y125.907 E.03223
G1 X117.948 Y125.907 E.19788
G1 X117.54 Y125.825 E.02101
G1 X116.848 Y125.469 E.03928
G1 X116.276 Y124.839 E.04295
G1 X115.988 Y124.057 E.04207
G1 X115.975 Y120.525 E.17829
G1 X100.024 Y120.525 E.80519
G1 X100.019 Y123.996 E.17521
G1 X99.958 Y124.296 E.01545
G1 X99.629 Y124.981 E.03836
G1 X98.905 Y125.635 E.04925
G1 X98.051 Y125.907 E.04524
G1 X93.987 Y125.889 E.20515
G1 X93.434 Y125.722 E.02916
G1 X92.912 Y125.395 E.03109
G1 X92.499 Y124.937 E.03113
G1 X92.316 Y124.609 E.01896
G1 X92.127 Y124.012 E.03161
G1 X92.054 Y123.309 E.03568
G1 X92.053 Y114.487 E.44532
G1 X92.217 Y113.83 E.03418
G1 X92.581 Y113.25 E.03457
G1 X93.337 Y112.676 E.04792
G1 X94.04 Y112.503 E.03655
M204 S1000
G1 X94.04 Y112.503 F10800
G1 X94.165 Y113.088
M204 S800
G1 F1200
G1 X121.835 Y113.09 E1.39675
G1 X122.282 Y113.176 E.02298
G1 X122.886 Y113.56 E.03613
G1 X123.177 Y113.975 E.02559
G1 X123.34 Y114.531 E.02925
G1 X123.337 Y123.348 E.44507
G1 X123.277 Y123.895 E.02778
G1 X123.123 Y124.378 E.02559
G1 X122.719 Y124.91 E.03372
G1 X122.27 Y125.188 E.02666
G1 X121.828 Y125.3 E.02302
G1 X117.978 Y125.3 E.19434
G1 X117.213 Y124.983 E.0418
G1 X116.792 Y124.518 E.03166
G1 X116.588 Y123.959 E.03004
